Newaita-dark/emblems/48/emblem-information.svg

<svg height="48" viewBox="0 0 48 48" width="48" xmlns="http://www.w3.org/2000/svg"><g fill="#fafafa"><path d="m252.642541.646073h2.749737c10.915624 0 19.789777 9.499093 19.789777 21.206309v190.48181c0 11.707215-8.874153 21.164645-19.789777 21.164645h-2.749737c-10.957287 0-19.789777-9.45743-19.789777-21.164645v-190.48181c0-11.707216 8.83249-21.206309 19.789777-21.206309zm0 0" stroke="#424242" stroke-linecap="round" stroke-linejoin="round" stroke-width="82" transform="matrix(.093759 0 0 .093759 0 20.158175)"/><path d="m23.816406 20.21875c1.09375 0 1.984375.890625 1.984375 1.988281v17.859375c0 1.097656-.890625 1.984375-1.984375 1.984375-1.097656 0-1.984375-.886719-1.984375-1.984375v-17.859375c0-1.097656.886719-1.988281 1.984375-1.988281zm0 0"/><path d="m254.017409-136.924123c11.665553 0 21.164646 9.499093 21.164646 21.164646 0 11.707215-9.499093 21.164646-21.164646 21.164646-11.707215 0-21.164645-9.457431-21.164645-21.164646 0-11.665553 9.45743-21.164646 21.164645-21.164646zm0 0" stroke="#424242" stroke-linecap="round" stroke-linejoin="round" stroke-width="82" transform="matrix(.093759 0 0 .093759 0 20.158175)"/><path d="m23.746094 7.320312h.136718c1.058594 0 1.917969.859376 1.917969 1.921876v.125c0 1.0625-.859375 1.921874-1.917969 1.921874h-.136718c-1.058594 0-1.914063-.859374-1.914063-1.921874v-.125c0-1.0625.855469-1.921876 1.914063-1.921876zm0 0"/></g></svg>

<?xml version="1.0" encoding="UTF-8"?>
<svg xmlns="http://www.w3.org/2000/svg" xmlns:xlink="http://www.w3.org/1999/xlink" width="48px" height="48px" viewBox="0 0 48 48" version="1.1">
<g id="surface1">
<path style="fill-rule:nonzero;fill:rgb(98.039216%,98.039216%,98.039216%);fill-opacity:1;stroke-width:82;stroke-linecap:round;stroke-linejoin:round;stroke:rgb(25.882354%,25.882354%,25.882354%);stroke-opacity:1;stroke-miterlimit:4;" d="M 252.642541 0.646073 L 255.392278 0.646073 C 266.307902 0.646073 275.182055 10.145166 275.182055 21.852382 L 275.182055 212.334192 C 275.182055 224.041407 266.307902 233.498837 255.392278 233.498837 L 252.642541 233.498837 C 241.685254 233.498837 232.852764 224.041407 232.852764 212.334192 L 232.852764 21.852382 C 232.852764 10.145166 241.685254 0.646073 252.642541 0.646073 Z M 252.642541 0.646073 " transform="matrix(0.093759,0,0,0.093759,0,20.158175)"/>
<path style=" stroke:none;fill-rule:nonzero;fill:rgb(98.039216%,98.039216%,98.039216%);fill-opacity:1;" d="M 23.816406 20.21875 C 24.910156 20.21875 25.800781 21.109375 25.800781 22.207031 L 25.800781 40.066406 C 25.800781 41.164062 24.910156 42.050781 23.816406 42.050781 C 22.71875 42.050781 21.832031 41.164062 21.832031 40.066406 L 21.832031 22.207031 C 21.832031 21.109375 22.71875 20.21875 23.816406 20.21875 Z M 23.816406 20.21875 "/>
<path style="fill-rule:nonzero;fill:rgb(98.039216%,98.039216%,98.039216%);fill-opacity:1;stroke-width:82;stroke-linecap:round;stroke-linejoin:round;stroke:rgb(25.882354%,25.882354%,25.882354%);stroke-opacity:1;stroke-miterlimit:4;" d="M 254.017409 -136.924123 C 265.682962 -136.924123 275.182055 -127.42503 275.182055 -115.759477 C 275.182055 -104.052262 265.682962 -94.594831 254.017409 -94.594831 C 242.310194 -94.594831 232.852764 -104.052262 232.852764 -115.759477 C 232.852764 -127.42503 242.310194 -136.924123 254.017409 -136.924123 Z M 254.017409 -136.924123 " transform="matrix(0.093759,0,0,0.093759,0,20.158175)"/>
<path style=" stroke:none;fill-rule:nonzero;fill:rgb(98.039216%,98.039216%,98.039216%);fill-opacity:1;" d="M 23.746094 7.320312 L 23.882812 7.320312 C 24.941406 7.320312 25.800781 8.179688 25.800781 9.242188 L 25.800781 9.367188 C 25.800781 10.429688 24.941406 11.289062 23.882812 11.289062 L 23.746094 11.289062 C 22.6875 11.289062 21.832031 10.429688 21.832031 9.367188 L 21.832031 9.242188 C 21.832031 8.179688 22.6875 7.320312 23.746094 7.320312 Z M 23.746094 7.320312 "/>
</g>
</svg>
